!!!OTL: Graf von Rom Der Junker Bursche wissen will,
!!!ARE: Europa, Mitteleuropa, Deutschland (), Lausitz - Gebiet, wendisch
!!!YOR: 1, S. 320 (Anhang)
!!    1841 gedruckt in Grimma
!!!SCT: Q0014D
!!!YEM: Copyright 1995, estate of Helmut Schaffrath.
**kern
*ICvox
*Ivox
*M4/4
*k[f#]
*G:
{4dd
=1
4dd
8g
8f#
4g
4a
=2
4b
4a
4b}
{4cc
=3
4dd
8dd
8ee
4dd
8a
8b
=4
4cc
8b
8a
4g}
{4d
=5
4g
8a
8f#
4d
4d
=6
4g
8a
8f#
4d}
{4dd
=7
4dd
4cc
4b
4a
=8
2g
4r}
==
!!!AGN: Ballade, Pilger - Reise, Gefangenschaft, Befreiung, Ehe, Liebe
!! Dritte Zeile = Refrain auf sinnfreie Silben.
!!!ONB: ESAC (Essen Associative Code) Database: BALLADE
!!!AMT: simple quadruple
!!!AIN: vox
!!!EED: Helmut Schaffrath
!!!EEV: 1.0
*-
